!!!!SEGMENT: pl-sa--228-a-vi-32--005_luna-georgius--litania-ex-d-sancta-maria.krn
!!!cenid: 17xx:450
!!!COM: Luna, Georgius
!!!COM-rism: pe41010079
!!!CDT:
!!!CNT:
!!!OTL: Litania ex D – Sancta Maria
!!!PDT:
!!!AGN: Sacred; Mass
!!!SMS-siglum: PL-SA
!!!SMS-shelfmark: 228/A VI 32
!!!NIFC-rismID: 1001068968
!!!URL-scan: http://bc.bdsandomierz.pl/dlibra/publication/1604/edition/1572/content
!!!ONB-nifc: UWAGA: części Litanii: Sinfonia, Kyrie, Pater de caelis, Sancta trinitas, Sancta Maria, Mater Christi, Mater amabilis, Virgo prudentissima, Speculum iustitiae, Rosa mistica, Salus infirmorum, Regina angelorum, Agnus Dei
!!!SMS-variant: Violino Primo: PL-SA 228/A VI 32:11
!!!SMS-altvar: Violino Imo: PL-SA 228/A VI 32:29
**kern	**dynam	**kern	**dynam	**kern	**dynam	**kern	**text	**kern	**kern	**kern
*part7	*part7	*part6	*part6	*part5	*part5	*part4	*part4	*part3	*part2	*part1
*	*	*group3	*	*group3	*	*group2	*	*group2	*group1	*group1
*staff7	*	*staff6	*	*staff5	*	*staff4	*staff4	*staff3	*staff2	*staff1
*I"Fondamemto	*	*I"Violino Secundo	*	*I"Violino Primo	*	*I"Tenore	*	*I"Canto	*I"Clarino Socundo	*I"Clarino Primo
*I'b	*	*I'vl 2	*	*I'vl 1	*	*I'T	*	*I'S	*I'clno 2	*I'clno 1
*clefF4	*	*clefG2	*	*clefG2	*	*clefC4	*	*clefC1	*clefG2	*clefG2
*	*	*	*	*	*	*	*	*	*ITrd-1c-2	*ITrd-1c-2
*k[f#]	*	*k[f#]	*	*k[f#]	*	*k[f#]	*	*k[f#]	*k[f#]	*k[f#]
*M2/2	*	*M2/2	*	*M2/2	*	*M2/2	*	*M2/2	*M2/2	*M2/2
*met(c|)	*	*met(c|)	*	*met(c|)	*	*met(c|)	*	*met(c|)	*met(c|)	*met(c|)
=1	=1	=1	=1	=1	=1	=1	=1	=1	=1	=1
*	*	*2\right	*	*2\right	*	*	*	*	*	*
!	!	!LO:TX:b:t=Sancta maria	!	!	!	!	!	!	!	!
!LO:TX:b:t=Sancta maria.	!	!	!	!LO:TX:b:t=Sancta maria	!	!	!	!	!	!
!LO:TX:a:t=andante	!	!LO:TX:a:t=Moderato	!	!LO:TX:a:t=Moderato	!	!LO:TX:a:t=allabreve	!	!LO:TX:a:t=Sancta Maria Tacet	!LO:TX:a:t=Sancta Maria Tacet	!LO:TX:a:t=Sancta Maria Tacet
4G\	.	2b\	.	2gg\	.	00r	.	1ryy	1ryy	1ryy
4G\	.	.	.	.	.	.	.	.	.	.
4G\	.	(8g/L	.	8g/L	.	.	.	.	.	.
.	.	8f#/	.	8a/	.	.	.	.	.	.
4G\	.	8g/	.	8b/	.	.	.	.	.	.
.	.	8a/J)	.	8cc/J	.	.	.	.	.	.
=2	=2	=2	=2	=2	=2	=2	=2	=2	=2	=2
4G\	.	4b\	.	4dd\	.	.	.	1ryy	1ryy	1ryy
4G\	.	2cc\	.	2ee\	.	.	.	.	.	.
4G\	.	.	.	.	.	.	.	.	.	.
4G\	.	4b\	.	4dd\	.	.	.	.	.	.
=3	=3	=3	=3	=3	=3	=3	=3	=3	=3	=3
4D\	.	4a/	.	4cc\	.	.	.	1ryy	1ryy	1ryy
4D\	.	2b/	.	2dd\	.	.	.	.	.	.
4D\	.	.	.	.	.	.	.	.	.	.
4D\	.	4a/	.	4cc\	.	.	.	.	.	.
=4	=4	=4	=4	=4	=4	=4	=4	=4	=4	=4
4G\	.	8g/L	.	8b\L	.	.	.	1ryy	1ryy	1ryy
.	.	8f#/J	.	8a\J	.	.	.	.	.	.
4G\	.	4g/	.	2g/	.	.	.	.	.	.
8D/L	.	2r	.	.	.	.	.	.	.	.
8C/	.	.	.	.	.	.	.	.	.	.
8BB/	.	.	.	4r	.	.	.	.	.	.
8AA/J	.	.	.	.	.	.	.	.	.	.
=5	=5	=5	=5	=5	=5	=5	=5	=5	=5	=5
!	!LO:DY:t=p	!	!LO:DY:t=pia	!	!LO:DY:b	!	!	!	!	!
4GG/	p	2b\	p	2gg\	p	00r	.	1ryy	1ryy	1ryy
4G\	.	.	.	.	.	.	.	.	.	.
4G\	.	8g/L	.	8g/L	.	.	.	.	.	.
.	.	8f#/	.	8a/	.	.	.	.	.	.
4G\	.	8g/	.	8b/	.	.	.	.	.	.
.	.	8a/J	.	8cc/J	.	.	.	.	.	.
=6	=6	=6	=6	=6	=6	=6	=6	=6	=6	=6
4G\	.	4b\	.	4dd\	.	.	.	1ryy	1ryy	1ryy
4G\	.	2cc\	.	2ee\	.	.	.	.	.	.
4G\	.	.	.	.	.	.	.	.	.	.
4G\	.	4b\	.	4dd\	.	.	.	.	.	.
=7	=7	=7	=7	=7	=7	=7	=7	=7	=7	=7
4D\	.	4a/	.	4cc\	.	.	.	1ryy	1ryy	1ryy
4D\	.	2b/	.	2dd\	.	.	.	.	.	.
4D\	.	.	.	.	.	.	.	.	.	.
4D\	.	4a/	.	4cc\	.	.	.	.	.	.
=8	=8	=8	=8	=8	=8	=8	=8	=8	=8	=8
4G\	.	8g/L	.	8b/L	.	.	.	1ryy	1ryy	1ryy
.	.	8f#/J	.	8a/J	.	.	.	.	.	.
4A\	.	4g/	.	4g/	.	.	.	.	.	.
4B\	.	4r	.	4r	.	.	.	.	.	.
!	!	!	!LO:DY:t=for	!	!	!	!	!	!	!
4G\	.	4dd\	f	4dd\	f	.	.	.	.	.
=9	=9	=9	=9	=9	=9	=9	=9	=9	=9	=9
*2\right	*	*	*	*	*	*	*	*	*	*
2c\	.	4.ee\	.	4.ee\	.	00r	.	1ryy	1ryy	1ryy
.	.	8aa\	.	8aa\	.	.	.	.	.	.
2d\	.	8ff#\L	.	8ff#\L	.	.	.	.	.	.
.	.	8ee\	.	8ee\	.	.	.	.	.	.
.	.	8dd\	.	8dd\	.	.	.	.	.	.
.	.	8cc\J	.	8cc\J	.	.	.	.	.	.
=10	=10	=10	=10	=10	=10	=10	=10	=10	=10	=10
2G\	.	2b\	.	2b\	.	.	.	1ryy	1ryy	1ryy
2r	.	2ee\	.	2ee\	.	.	.	.	.	.
!	!	!LO:LB:g=original	!	!	!	!	!	!	!	!
=11	=11	=11	=11	=11	=11	=11	=11	=11	=11	=11
4C/	.	8ee\L	.	8ee\L	.	.	.	1ryy	1ryy	1ryy
.	.	8dd\	.	8dd\	.	.	.	.	.	.
4C/	.	8cc\	.	8cc\	.	.	.	.	.	.
.	.	8b\J	.	8b\J	.	.	.	.	.	.
4C/	.	4a/	.	4a/	.	.	.	.	.	.
4C/	.	4g/	.	4g/	.	.	.	.	.	.
!	!	!	!	!LO:LB:g=original	!	!	!	!	!	!
=12	=12	=12	=12	=12	=12	=12	=12	=12	=12	=12
!LO:TX:a:t=P:problem:mixed beam	!	!LO:TX:a:t=P:problem:mixed beam	!	!LO:TX:a:t=P:problem:mixed beam	!	!	!	!	!	!
8D/L	.	8f#/L	.	8f#/L	.	.	.	1ryy	1ryy	1ryy
8d\	.	8dd\	.	8dd\	.	.	.	.	.	.
8A\	.	8a\	.	8a\	.	.	.	.	.	.
8F#\J	.	8f#\J	.	8f#\J	.	.	.	.	.	.
!LO:TX:a:t=P:problem:mixed beam	!	!LO:TX:a:t=P:problem:mixed beam	!	!LO:TX:a:t=P:problem:mixed beam	!	!	!	!	!	!
8D/L	.	8d/L	.	8d/L	.	.	.	.	.	.
8d\	.	8dd\	.	8dd\	.	.	.	.	.	.
8A\	.	8a\	.	8a\	.	.	.	.	.	.
8F#\J	.	8f#\J	.	8f#\J	.	.	.	.	.	.
=13	=13	=13	=13	=13	=13	=13	=13	=13	=13	=13
4D\	.	4d/	.	4d/	.	00r	.	1ryy	1ryy	1ryy
4r	.	4b\	.	4dd\	.	.	.	.	.	.
2r	.	(8b\L	.	(8dd\L	.	.	.	.	.	.
.	.	16a\L	.	16cc\L	.	.	.	.	.	.
.	.	16b\JJ)	.	16dd\JJ)	.	.	.	.	.	.
.	.	8cc\L	.	8ee\L	.	.	.	.	.	.
.	.	8b\J	.	8dd\J	.	.	.	.	.	.
=14	=14	=14	=14	=14	=14	=14	=14	=14	=14	=14
!LO:TX:a:t=P:problem:mixed beam	!	!LO:TX:a:t=P:problem:mixed beam	!	!LO:TX:a:t=P:problem:mixed beam	!	!	!	!	!	!
8D/L	.	8d/L	.	8d/L	.	.	.	1ryy	1ryy	1ryy
8d\	.	8dd\	.	8dd\	.	.	.	.	.	.
8A\	.	8a\	.	8a\	.	.	.	.	.	.
8F#\J	.	8f#\J	.	8f#\J	.	.	.	.	.	.
!LO:LB:g=original	!	!	!	!	!	!	!	!	!	!
!LO:TX:a:t=P:problem:mixed beam	!	!LO:TX:a:t=P:problem:mixed beam	!	!LO:TX:a:t=P:problem:mixed beam	!	!	!	!	!	!
8D/L	.	8d/L	.	8d/L	.	.	.	.	.	.
8d\	.	8dd\	.	8dd\	.	.	.	.	.	.
8A\	.	8a\	.	8a\	.	.	.	.	.	.
8F#\J	.	8f#\J	.	8f#\J	.	.	.	.	.	.
=15	=15	=15	=15	=15	=15	=15	=15	=15	=15	=15
4D\	.	4d/	.	4d/	.	.	.	1ryy	1ryy	1ryy
4r	.	4a/	.	4cc\	.	.	.	.	.	.
2r	.	8a/L	.	8cc\L	.	.	.	.	.	.
.	.	16g/L	.	16b\L	.	.	.	.	.	.
.	.	16a/JJ	.	16cc\JJ	.	.	.	.	.	.
.	.	8b/L	.	8dd\L	.	.	.	.	.	.
.	.	8a/J	.	8cc\J	.	.	.	.	.	.
=16	=16	=16	=16	=16	=16	=16	=16	=16	=16	=16
*	*	*Xtuplet	*	*Xtuplet	*	*	*	*	*	*
4G\	.	12g/L	.	12b\L	.	.	.	1ryy	1ryy	1ryy
.	.	12b/	.	12gg\	.	.	.	.	.	.
.	.	12a/J	.	12ff#\J	.	.	.	.	.	.
4G\	.	12b/L	.	12gg\L	.	.	.	.	.	.
.	.	12a/	.	12ff#\	.	.	.	.	.	.
.	.	12b/J	.	12gg\J	.	.	.	.	.	.
.	.	8qqb/	.	8qqffn/	.	.	.	.	.	.
4G\	.	2cc\	.	2ee\	.	.	.	.	.	.
4G\	.	.	.	.	.	.	.	.	.	.
=17	=17	=17	=17	=17	=17	=17	=17	=17	=17	=17
4G\	.	12b\L	.	12dd\L	.	00r	.	1ryy	1ryy	1ryy
.	.	12b\	.	12gg\	.	.	.	.	.	.
.	.	12a\J	.	12ff#\J	.	.	.	.	.	.
4G\	.	12b\L	.	12gg\L	.	.	.	.	.	.
.	.	12a\	.	12ff#\	.	.	.	.	.	.
.	.	12b\J	.	12gg\J	.	.	.	.	.	.
.	.	8qqb/	.	8qqdd/	.	.	.	.	.	.
4D\	.	2a/	.	2cc\	.	.	.	.	.	.
4D\	.	.	.	.	.	.	.	.	.	.
=18	=18	=18	=18	=18	=18	=18	=18	=18	=18	=18
4G\	.	8b/L	.	8b/L	.	.	.	1ryy	1ryy	1ryy
.	.	8g/	.	8g/	.	.	.	.	.	.
4C\	.	8a/	.	8a/	.	.	.	.	.	.
.	.	8e/J	.	8e/J	.	.	.	.	.	.
.	.	8qqg/	.	8qqg/	.	.	.	.	.	.
4D\	.	2f#/	.	2f#/	.	.	.	.	.	.
4DD/	.	.	.	.	.	.	.	.	.	.
=19	=19	=19	=19	=19	=19	=19	=19	=19	=19	=19
!	!LO:DY:t=p	!	!LO:DY:t=p	!LO:TX:a:t=P:problem:mixed beam	!LO:DY:rj	!	!	!	!	!
4GG/	p	12g/L	p	12g/L	p	.	.	1ryy	1ryy	1ryy
.	.	12b/	.	12gg\	.	.	.	.	.	.
.	.	12a/J	.	12ff#\J	.	.	.	.	.	.
4G\	.	12b/L	.	12gg\L	.	.	.	.	.	.
.	.	12a/	.	12ff#\	.	.	.	.	.	.
.	.	12b/J	.	12gg\J	.	.	.	.	.	.
.	.	8qqb/	.	8qqffn/	.	.	.	.	.	.
4G\	.	2cc\	.	2ee\	.	.	.	.	.	.
4G\	.	.	.	.	.	.	.	.	.	.
!	!	!LO:LB:g=original	!	!	!	!	!	!	!	!
=20	=20	=20	=20	=20	=20	=20	=20	=20	=20	=20
4G\	.	12b\L	.	12dd\L	.	.	.	1ryy	1ryy	1ryy
.	.	12b\	.	12gg\	.	.	.	.	.	.
.	.	12a\J	.	12ff#\J	.	.	.	.	.	.
4G\	.	12b\L	.	12gg\L	.	.	.	.	.	.
.	.	12a\	.	12ff#\	.	.	.	.	.	.
.	.	12b\J	.	12gg\J	.	.	.	.	.	.
.	.	8qqb/	.	8qqdd/	.	.	.	.	.	.
4D\	.	2a/	.	2cc\	.	.	.	.	.	.
4D\	.	.	.	.	.	.	.	.	.	.
=21	=21	=21	=21	=21	=21	=21	=21	=21	=21	=21
!	!LO:DY:t=f	!	!LO:DY:t=f	!	!	!	!	!	!	!
4G\	f	8b/L	f	8b/L	.	0r	.	1ryy	1ryy	1ryy
.	.	8g/	.	8g/	.	.	.	.	.	.
4C/	.	8a/	.	8a/	.	.	.	.	.	.
.	.	8e/J	.	8e/J	.	.	.	.	.	.
.	.	8qqg/	.	8qqg/	.	.	.	.	.	.
4D\	.	2f#/	.	2f#/	.	.	.	.	.	.
4DD/	.	.	.	.	.	.	.	.	.	.
=22	=22	=22	=22	=22	=22	=22	=22	=22	=22	=22
4GG/	.	4g/	.	4g/	.	.	.	1ryy	1ryy	1ryy
4GG/	.	8d/L	.	8d/L	.	.	.	.	.	.
.	.	8B/J	.	8B/J	.	.	.	.	.	.
!	!	!	!	!LO:TX:a:t=P:problem:główka nuty zaklejona wzmocnieniem strony	!	!	!	!	!	!
4GG/	.	2G;/	.	2G;/	.	.	.	.	.	.
!LO:TX:b:t=P:problem:fermata również na dole	!	!	!	!	!	!	!	!	!	!
4r;;	.	.	.	.	.	.	.	.	.	.
!	!	!	!	!LO:PB:g=original	!	!	!	!	!	!
=23	=23	=23	=23	=23	=23	=23	=23	=23	=23	=23
*	*	*	*	*	*	*2\right	*	*	*	*
!	!LO:DY:rj:t=p	!	!	!	!LO:DY:t=pia	!	!	!	!	!
4G\	p	2b\	p	2gg\	p	2g\	San-	1ryy	1ryy	1ryy
4G\	.	.	.	.	.	.	.	.	.	.
4G\	.	(8g/L	.	8g/L	.	8G/L	-cta	.	.	.
.	.	8f#/	.	8a/	.	8A/	.	.	.	.
4G\	.	8g/	.	8b/	.	8B/	.	.	.	.
.	.	8a/J)	.	8cc/J	.	8c/J	.	.	.	.
=24	=24	=24	=24	=24	=24	=24	=24	=24	=24	=24
4G\	.	4b\	.	4dd\	.	4d\	San-	1ryy	1ryy	1ryy
4G\	.	2cc\	.	2ee\	.	2e\	.	.	.	.
4G\	.	.	.	.	.	.	.	.	.	.
4G\	.	4b\	.	4dd\	.	4d\	-cta	.	.	.
=25	=25	=25	=25	=25	=25	=25	=25	=25	=25	=25
4D\	.	4a/	.	4cc\	.	4c\	Ma-	1ryy	1ryy	1ryy
4D\	.	2b/	.	2dd\	.	2d\	.	.	.	.
4D\	.	.	.	.	.	.	.	.	.	.
4D\	.	4a/	.	4cc\	.	4c\	.	.	.	.
=26	=26	=26	=26	=26	=26	=26	=26	=26	=26	=26
4G\	.	8g/L	.	8b/L	.	8B\L	-ri-	1ryy	1ryy	1ryy
.	.	8f#/J	.	8a/J	.	8A\J	.	.	.	.
4G\	.	4g/	.	4g/	.	4G/	-a	.	.	.
8D/L	.	2r	.	2r	.	2r	.	.	.	.
8C/	.	.	.	.	.	.	.	.	.	.
8BB/	.	.	.	.	.	.	.	.	.	.
8AA/J	.	.	.	.	.	.	.	.	.	.
=27	=27	=27	=27	=27	=27	=27	=27	=27	=27	=27
4GG/	.	2b\	.	2gg\	.	2g\	San-	1ryy	1ryy	1ryy
4G\	.	.	.	.	.	.	.	.	.	.
4G\	.	(8g/L	.	8g/L	.	8G/L	-cta	.	.	.
.	.	8f#/	.	8a/	.	8A/	.	.	.	.
4G\	.	8g/	.	8b/	.	8B/	.	.	.	.
.	.	8a/J)	.	8cc/J	.	8c/J	.	.	.	.
!LO:LB:g=original	!	!	!	!	!	!	!	!	!	!
=28	=28	=28	=28	=28	=28	=28	=28	=28	=28	=28
4G\	.	4b\	.	4dd\	.	4d\	San-	1ryy	1ryy	1ryy
4G\	.	2cc\	.	2ee\	.	2e\	.	.	.	.
4G\	.	.	.	.	.	.	.	.	.	.
4G\	.	4b\	.	4dd\	.	4d\	-cta	.	.	.
=29	=29	=29	=29	=29	=29	=29	=29	=29	=29	=29
4D\	.	4a/	.	4cc\	.	4c\	Ma-	1ryy	1ryy	1ryy
4D\	.	2b/	.	2dd\	.	2d\	.	.	.	.
4D\	.	.	.	.	.	.	.	.	.	.
4D\	.	4a/	.	4cc\	.	4c\	.	.	.	.
=30	=30	=30	=30	=30	=30	=30	=30	=30	=30	=30
4G\	.	8g/L	.	8b\L	.	8B\L	-ri-	1ryy	1ryy	1ryy
.	.	8f#/J	.	8a\J	.	8A\J	.	.	.	.
4A\	.	4g/	.	4g/	.	4G/	-a	.	.	.
4B\	.	4r	.	4r	.	4r	.	.	.	.
!	!	!LO:TX:b:t=Verte	!	!	!	!	!	!	!	!
4G\	.	4b\	.	4dd\	.	4d\	o-	.	.	.
!	!	!LO:PB:g=original	!	!	!	!	!	!	!	!
=31	=31	=31	=31	=31	=31	=31	=31	=31	=31	=31
4C/	.	4g/	.	4ee\	.	4.e\	-ra	1ryy	1ryy	1ryy
4C/	.	4g/	.	4ee\	.	.	.	.	.	.
.	.	.	.	.	.	8a\	pro	.	.	.
4D/	.	4cc\	.	4ff#\	.	8f#\L	no-	.	.	.
.	.	.	.	.	.	8e\	.	.	.	.
4D/	.	4cc\	.	4ff#\	.	8d\	.	.	.	.
.	.	.	.	.	.	8c\J	.	.	.	.
!	!	!	!	!	!	!LO:LB:g=original	!	!	!	!
=32	=32	=32	=32	=32	=32	=32	=32	=32	=32	=32
2G\	.	2b\	.	2gg\	.	2B\	-bis	1ryy	1ryy	1ryy
2r	.	2cc\	.	[2ee\	.	2e\	pro	.	.	.
=33	=33	=33	=33	=33	=33	=33	=33	=33	=33	=33
4C/	.	4e/	.	8ee\L]	.	8e\L	no-	1ryy	1ryy	1ryy
.	.	.	.	8dd\	.	8d\	.	.	.	.
4C/	.	4e/	.	8cc\	.	8c\	.	.	.	.
.	.	.	.	8b\J	.	8B\J	.	.	.	.
4C/	.	4e/	.	4a/	.	4A/	.	.	.	.
4C/	.	4e/	.	4g/	.	4G/	.	.	.	.
=34	=34	=34	=34	=34	=34	=34	=34	=34	=34	=34
!	!	!	!	!LO:TX:a:t=P:problem:mixed beam	!	!	!	!	!	!
4D\	.	8d/L	.	8f#/L	.	2F#/	-bis	1ryy	1ryy	1ryy
.	.	8f#/	.	8dd\	.	.	.	.	.	.
4D\	.	8e/	.	8cc#X\	.	.	.	.	.	.
.	.	8g/J	.	8ee\J	.	.	.	.	.	.
.	.	8qqg/	.	8qqee/	.	.	.	.	.	.
4D\	.	2f#/	.	2dd\	.	2r	.	.	.	.
4D\	.	.	.	.	.	.	.	.	.	.
!	!	!	!	!LO:LB:g=original	!	!	!	!	!	!
=35	=35	=35	=35	=35	=35	=35	=35	=35	=35	=35
4D\	.	4a/	.	4ff#\	.	2d\	San-	1ryy	1ryy	1ryy
4D\	.	4a/	.	4ff#\	.	.	.	.	.	.
4D\	.	4a/	.	4ff#\	.	2d\	-cta	.	.	.
4D\	.	4a/	.	4ff#\	.	.	.	.	.	.
=36	=36	=36	=36	=36	=36	=36	=36	=36	=36	=36
4AA/	.	4cc#X\	.	4ee\	.	2a\	San-	1ryy	1ryy	1ryy
4AA/	.	4cc#\	.	4ee\	.	.	.	.	.	.
4AA/	.	4cc#\	.	4ee\	.	2A\	-cta	.	.	.
4AA/	.	4cc#\	.	4ee\	.	.	.	.	.	.
=37	=37	=37	=37	=37	=37	=37	=37	=37	=37	=37
4D\	.	4a/	.	4ff#\	.	4f#\	de-	1ryy	1ryy	1ryy
4G\	.	2g/	.	2ee\	.	8e\L	-i	.	.	.
.	.	.	.	.	.	8f#\J	.	.	.	.
4G\	.	.	.	.	.	8e\L	ge-	.	.	.
.	.	.	.	.	.	8d\J	.	.	.	.
4G\	.	4f#/	.	4dd\	.	8c#X\L	-ni-	.	.	.
.	.	.	.	.	.	8d\J	.	.	.	.
=38	=38	=38	=38	=38	=38	=38	=38	=38	=38	=38
!	!	!	!	!	!	!LO:SIC:s=2c#	!	!	!	!
4A\	.	8e/L	.	8cc#X\L	.	2c\	-trix	1ryy	1ryy	1ryy
.	.	8a/	.	8a\	.	.	.	.	.	.
4AA/	.	8cc#X/	.	8cc#\	.	.	.	.	.	.
.	.	8ee/J	.	8ee\J	.	.	.	.	.	.
4AA/	.	2aa\	.	2aa\	.	2r	.	.	.	.
4AA/	.	.	.	.	.	.	.	.	.	.
=39	=39	=39	=39	=39	=39	=39	=39	=39	=39	=39
4G\	.	4b\	.	4ee\	.	4B\	San-	1ryy	1ryy	1ryy
4G\	.	4b\	.	4ee\	.	(16c#X\LL	-cta	.	.	.
.	.	.	.	.	.	16d\	.	.	.	.
.	.	.	.	.	.	16e\	.	.	.	.
.	.	.	.	.	.	16f#\JJ)	.	.	.	.
4G\	.	4b\	.	4ee\	.	4g\	Vir-	.	.	.
4G\	.	4b\	.	4ee\	.	4g\	-go	.	.	.
=40	=40	=40	=40	=40	=40	=40	=40	=40	=40	=40
4A\	.	4cc#X\	.	4ee\	.	(8g\L	Vir-	1ryy	1ryy	1ryy
.	.	.	.	.	.	8f#\J)	.	.	.	.
4AA/	.	4cc#\	.	4ee\	.	(8e\L	-gi-	.	.	.
.	.	.	.	.	.	8d\J)	.	.	.	.
4AA/	.	4cc#\	.	4ee\	.	(8c#X\L	-num	.	.	.
.	.	.	.	.	.	8B\J)	.	.	.	.
4AA/	.	4cc#\	.	4ee\	.	(8A/L	o-	.	.	.
.	.	.	.	.	.	8G/J)	.	.	.	.
=41	=41	=41	=41	=41	=41	=41	=41	=41	=41	=41
!	!	!	!	!	!	!LO:TX:a:t=P:problem:mixed beam	!	!	!	!
4D\	.	4a/	.	4ff#\	.	8F#/L	-ra	1ryy	1ryy	1ryy
.	.	.	.	.	.	8f#\J	.	.	.	.
4G\	.	4g/	.	4ee\	.	8e\L	pro	.	.	.
.	.	.	.	.	.	8d\J	.	.	.	.
.	.	8qqf#/	.	8qqdd/	.	.	.	.	.	.
4A\	.	2e/	.	2cc#X\	.	2c#X\	no-	.	.	.
4AA/	.	.	.	.	.	.	.	.	.	.
!	!	!	!	!	!	!LO:LB:g=original	!	!	!	!
=42	=42	=42	=42	=42	=42	=42	=42	=42	=42	=42
!	!LO:DY:t=for	!	!LO:DY:t=f	!	!LO:DY:rj:t=f	!	!	!	!	!
4D\	f	2ff#\	f	2ddd\	f	2d\	-bis	1ryy	1ryy	1ryy
4D\	.	.	.	.	.	.	.	.	.	.
4D\	.	(8dd\L	.	(8dd\L	.	2r	.	.	.	.
.	.	8cc#X\	.	8ee\	.	.	.	.	.	.
4D\	.	8dd\	.	8ff#\	.	.	.	.	.	.
.	.	8ee\J)	.	8gg\J)	.	.	.	.	.	.
!LO:LB:g=original	!	!	!	!	!	!	!	!	!	!
=43	=43	=43	=43	=43	=43	=43	=43	=43	=43	=43
4D\	.	4ff#\	.	4aa\	.	00r	.	1ryy	1ryy	1ryy
4D\	.	2gg\	.	2bb\	.	.	.	.	.	.
4D\	.	.	.	.	.	.	.	.	.	.
4D\	.	4ff#\	.	4aa\	.	.	.	.	.	.
!	!	!LO:LB:g=original	!	!	!	!	!	!	!	!
=44	=44	=44	=44	=44	=44	=44	=44	=44	=44	=44
4AA/	.	4ee\	.	4gg\	.	.	.	1ryy	1ryy	1ryy
4AA/	.	2ff#\	.	2aa\	.	.	.	.	.	.
4AA/	.	.	.	.	.	.	.	.	.	.
4AA/	.	4ee\	.	4gg\	.	.	.	.	.	.
=45	=45	=45	=45	=45	=45	=45	=45	=45	=45	=45
4D/	.	8dd\L	.	8ff#\L	.	.	.	1ryy	1ryy	1ryy
.	.	8cc#X\J	.	8ee\J	.	.	.	.	.	.
4d\	.	4dd\	.	4dd\	.	.	.	.	.	.
8A\L	.	2r	.	2r	.	.	.	.	.	.
8G\	.	.	.	.	.	.	.	.	.	.
8F#\	.	.	.	.	.	.	.	.	.	.
8E\J	.	.	.	.	.	.	.	.	.	.
=46	=46	=46	=46	=46	=46	=46	=46	=46	=46	=46
!	!	!	!LO:DY:rj:t=p	!	!LO:DY:rj	!	!	!	!	!
4D\	p	2ff#\	p	2ddd\	p	.	.	1ryy	1ryy	1ryy
4D\	.	.	.	.	.	.	.	.	.	.
4D\	.	(8dd\L	.	8dd\L	.	.	.	.	.	.
.	.	8cc#X\	.	8ee\	.	.	.	.	.	.
4D\	.	8dd\	.	8ff#\	.	.	.	.	.	.
.	.	8ee\J)	.	8gg\J	.	.	.	.	.	.
!	!	!	!	!LO:LB:g=original	!	!	!	!	!	!
=47	=47	=47	=47	=47	=47	=47	=47	=47	=47	=47
4D\	.	4ff#\	.	4aa\	.	00r	.	1ryy	1ryy	1ryy
4D\	.	2gg\	.	2bb\	.	.	.	.	.	.
4D\	.	.	.	.	.	.	.	.	.	.
4D\	.	4ff#\	.	4aa\	.	.	.	.	.	.
=48	=48	=48	=48	=48	=48	=48	=48	=48	=48	=48
4A\	.	4ee\	.	4gg\	.	.	.	1ryy	1ryy	1ryy
4A\	.	2ff#\	.	2aa\	.	.	.	.	.	.
4A\	.	.	.	.	.	.	.	.	.	.
4A\	.	4ee\	.	4gg\	.	.	.	.	.	.
=49	=49	=49	=49	=49	=49	=49	=49	=49	=49	=49
4D\	.	8dd\L	.	8ff#\L	.	.	.	1ryy	1ryy	1ryy
.	.	8cc#X\J	.	8ee\J	.	.	.	.	.	.
4E\	.	4dd\	.	4dd\	.	.	.	.	.	.
4F#\	.	4r	.	4r	.	.	.	.	.	.
!	!	!	!LO:DY:t=f	!	!	!	!	!	!	!
4D\	.	4aa\	f	4aa\	f	.	.	.	.	.
=50	=50	=50	=50	=50	=50	=50	=50	=50	=50	=50
!	!LO:DY:t=f	!	!	!	!	!	!	!	!	!
2G\	f	4.bb\	.	4.bb\	.	.	.	1ryy	1ryy	1ryy
.	.	8ddd\	.	8ddd\	.	.	.	.	.	.
!	!	!LO:SIC:s=8ccc#	!	!	!	!	!	!	!	!
2A\	.	8ccc\L	.	8ccc#X\L	.	.	.	.	.	.
.	.	8bb\	.	8bb\	.	.	.	.	.	.
.	.	8aa\	.	8aa\	.	.	.	.	.	.
.	.	8gg\J	.	8gg\J	.	.	.	.	.	.
=51	=51	=51	=51	=51	=51	=51	=51	=51	=51	=51
2D\	.	2ff#\	.	2ff#\	.	00r	.	1ryy	1ryy	1ryy
2r	.	2bb\	.	2bb\	.	.	.	.	.	.
=52	=52	=52	=52	=52	=52	=52	=52	=52	=52	=52
4G\	.	8bb\L	.	8bb\L	.	.	.	1ryy	1ryy	1ryy
.	.	8aa\	.	8aa\	.	.	.	.	.	.
4G\	.	8gg\	.	8gg\	.	.	.	.	.	.
.	.	8ff#\J	.	8ff#\J	.	.	.	.	.	.
4G\	.	4ee\	.	4ee\	.	.	.	.	.	.
4G\	.	4dd\	.	4dd\	.	.	.	.	.	.
=53	=53	=53	=53	=53	=53	=53	=53	=53	=53	=53
!LO:TX:a:t=P:problem:mixed beam	!	!	!	!	!	!	!	!	!	!
8AA/L	.	8cc#X\L	.	8cc#X\L	.	.	.	1ryy	1ryy	1ryy
8A\	.	8aa\	.	8aa\	.	.	.	.	.	.
8E\	.	8ee\	.	8ee\	.	.	.	.	.	.
8C#X\J	.	8cc#\J	.	8cc#\J	.	.	.	.	.	.
!LO:TX:a:t=P:problem:mixed beam	!	!	!	!	!	!	!	!	!	!
8AA/L	.	8a\L	.	8a\L	.	.	.	.	.	.
8A\	.	8aa\	.	8aa\	.	.	.	.	.	.
8E\	.	8ee\	.	8ee\	.	.	.	.	.	.
8C#X\J	.	8cc#\J	.	8cc#\J	.	.	.	.	.	.
!	!	!LO:LB:g=original	!	!	!	!	!	!	!	!
=54	=54	=54	=54	=54	=54	=54	=54	=54	=54	=54
4AA/	.	4a/	.	4a/	.	.	.	1ryy	1ryy	1ryy
4r	.	4ff#\	.	4aa\	.	.	.	.	.	.
2r	.	8ff#\L	.	8aa\L	.	.	.	.	.	.
.	.	16ee\L	.	16gg\L	.	.	.	.	.	.
.	.	16ff#\JJ	.	16aa\JJ	.	.	.	.	.	.
.	.	8gg\L	.	8bb\L	.	.	.	.	.	.
.	.	8ff#\J	.	8aa\J	.	.	.	.	.	.
=55	=55	=55	=55	=55	=55	=55	=55	=55	=55	=55
!LO:TX:a:t=P:problem:mixed beam	!	!	!	!LO:TX:a:t=P:problem:mixed beam	!	!	!	!	!	!
8AA/L	.	8a\L	.	8a/L	.	00r	.	1ryy	1ryy	1ryy
8A\	.	8aa\	.	8aa\	.	.	.	.	.	.
8E\	.	8ee\	.	8ee\	.	.	.	.	.	.
!	!	!	!	!LO:SIC:s=8cc#	!	!	!	!	!	!
8C#X\J	.	8cc#X\J	.	8cc\J	.	.	.	.	.	.
!LO:TX:a:t=P:problem:mixed beam	!	!	!	!LO:TX:a:t=P:problem:mixed beam	!	!	!	!	!	!
8AA/L	.	8a\L	.	8a/L	.	.	.	.	.	.
8A\	.	8aa\	.	8aa\	.	.	.	.	.	.
8E\	.	8ee\	.	8ee\	.	.	.	.	.	.
!	!	!	!	!LO:SIC:s=8cc#	!	!	!	!	!	!
8C#X\J	.	8cc#\J	.	8cc\J	.	.	.	.	.	.
!LO:LB:g=original	!	!	!	!LO:LB:g=original	!	!	!	!	!	!
=56	=56	=56	=56	=56	=56	=56	=56	=56	=56	=56
4AA/	.	4a/	.	4a/	.	.	.	1ryy	1ryy	1ryy
4r	.	4ee\	.	4gg\	.	.	.	.	.	.
2r	.	8ee\L	.	8gg\L	.	.	.	.	.	.
.	.	16dd\L	.	16ff#\L	.	.	.	.	.	.
.	.	16ee\JJ	.	16gg\JJ	.	.	.	.	.	.
.	.	8ff#\L	.	8aa\L	.	.	.	.	.	.
.	.	8ee\J	.	8gg\J	.	.	.	.	.	.
=57	=57	=57	=57	=57	=57	=57	=57	=57	=57	=57
4D\	.	12dd\L	.	12ff#\L	.	.	.	1ryy	1ryy	1ryy
.	.	12ff#\	.	12ddd\	.	.	.	.	.	.
.	.	12ee\J	.	12ccc#X\J	.	.	.	.	.	.
4D\	.	12ff#\L	.	12ddd\L	.	.	.	.	.	.
.	.	12ee\	.	12ccc#\	.	.	.	.	.	.
.	.	12ff#\J	.	12ddd\J	.	.	.	.	.	.
.	.	8qqaa/	.	8qqcccn/	.	.	.	.	.	.
4D\	.	2gg\	.	2bb\	.	.	.	.	.	.
4D\	.	.	.	.	.	.	.	.	.	.
=58	=58	=58	=58	=58	=58	=58	=58	=58	=58	=58
4D\	.	12ff#\L	.	12aa\L	.	.	.	1ryy	1ryy	1ryy
.	.	12ff#\	.	12ddd\	.	.	.	.	.	.
.	.	12ee\J	.	12ccc#X\J	.	.	.	.	.	.
4D\	.	12ff#\L	.	12ddd\L	.	.	.	.	.	.
.	.	12ee\	.	12ccc#\	.	.	.	.	.	.
.	.	12ff#\J	.	12ddd\J	.	.	.	.	.	.
.	.	8qqff#/	.	8qqaa/	.	.	.	.	.	.
4AA/	.	2ee\	.	2gg\	.	.	.	.	.	.
4AA/	.	.	.	.	.	.	.	.	.	.
=59	=59	=59	=59	=59	=59	=59	=59	=59	=59	=59
4D\	.	8ff#\L	.	8ff#\L	.	00r	.	1ryy	1ryy	1ryy
.	.	8dd\	.	8dd\	.	.	.	.	.	.
4G\	.	8ee\	.	8ee\	.	.	.	.	.	.
!	!	!LO:TX:a:t=h:problem:wysokość poprawiana	!	!	!	!	!	!	!	!
.	.	8b\J	.	8b\J	.	.	.	.	.	.
.	.	8qqdd/	.	8qqdd/	.	.	.	.	.	.
4A\	.	2cc#X\	.	2cc#X\	.	.	.	.	.	.
4AA/	.	.	.	.	.	.	.	.	.	.
=60	=60	=60	=60	=60	=60	=60	=60	=60	=60	=60
!	!LO:DY:rj	!	!LO:DY:rj:t=p	!	!LO:DY:rj	!	!	!	!	!
4D\	p	12dd\L	p	12dd\L	p	.	.	1ryy	1ryy	1ryy
.	.	12ff#\	.	12ddd\	.	.	.	.	.	.
.	.	12ee\J	.	12ccc#X\J	.	.	.	.	.	.
4D\	.	12ff#\L	.	12ddd\L	.	.	.	.	.	.
.	.	12ee\	.	12ccc#\	.	.	.	.	.	.
.	.	12ff#\J	.	12ddd\J	.	.	.	.	.	.
.	.	8qqaa/	.	8qqcccn/	.	.	.	.	.	.
4D\	.	2gg\	.	2bb\	.	.	.	.	.	.
4D\	.	.	.	.	.	.	.	.	.	.
=61	=61	=61	=61	=61	=61	=61	=61	=61	=61	=61
4D\	.	12ff#\L	.	12aa\L	.	.	.	1ryy	1ryy	1ryy
.	.	12ff#\	.	12ddd\	.	.	.	.	.	.
.	.	12ee\J	.	12ccc#X\J	.	.	.	.	.	.
4D\	.	12ff#\L	.	12ddd\L	.	.	.	.	.	.
.	.	12ee\	.	12ccc#\	.	.	.	.	.	.
.	.	12ff#\J	.	12ddd\J	.	.	.	.	.	.
.	.	8qqff#/	.	8qqaa/	.	.	.	.	.	.
4AA/	.	2ee\	.	2gg\	.	.	.	.	.	.
4AA/	.	.	.	.	.	.	.	.	.	.
!	!	!LO:LB:g=original	!	!	!	!	!	!	!	!
=62	=62	=62	=62	=62	=62	=62	=62	=62	=62	=62
4D\	.	8ff#\L	.	8ff#\L	f	.	.	1ryy	1ryy	1ryy
.	.	8dd\	.	8dd\	.	.	.	.	.	.
!	!LO:DY:t=for	!	!	!	!	!	!	!	!	!
4G\	f	8ee\	.	8ee\	.	.	.	.	.	.
.	.	8b\J	.	8b\J	.	.	.	.	.	.
.	.	8qqdd/	.	8qqdd/	.	.	.	.	.	.
4A\	.	2cc#X\	.	2cc#X\	.	.	.	.	.	.
4AA/	.	.	.	.	.	.	.	.	.	.
!	!	!	!	!LO:LB:g=original	!	!	!	!	!	!
=63	=63	=63	=63	=63	=63	=63	=63	=63	=63	=63
4D\	.	4dd\	.	4dd\	.	1r	.	1ryy	1ryy	1ryy
4D\	.	8a/L	.	8a/L	.	.	.	.	.	.
.	.	8f#/J	.	8f#/J	.	.	.	.	.	.
4D\	.	4d/	.	4d/	.	.	.	.	.	.
4r	.	4r	.	4r	.	.	.	.	.	.
=64	=64	=64	=64	=64	=64	=64	=64	=64	=64	=64
!	!LO:DY:rj	!	!	!	!	!	!	!	!	!
4D/	p	4dd\	p	4dd\	.	2A\	San-	1ryy	1ryy	1ryy
4d\	.	2ff#\	.	2aa\	.	.	.	.	.	.
4F#\	.	.	.	.	.	(8f#\L	-cta	.	.	.
.	.	.	.	.	.	8d\J)	.	.	.	.
4A\	.	4ee\	.	4gg\	.	(8c#X\L	ma-	.	.	.
.	.	.	.	.	.	8e\J)	.	.	.	.
=65	=65	=65	=65	=65	=65	=65	=65	=65	=65	=65
!	!	!LO:TX:a:t=P:problem:mixed beam	!	!	!	!	!	!	!	!
4D\	.	8dd\L	.	8ff#\L	.	4.d\	-ri-	1ryy	1ryy	1ryy
.	.	8f#/	.	8dd\	.	.	.	.	.	.
4E\	.	8e/	.	8cc#X\	.	.	.	.	.	.
.	.	8g/J	.	8b\J	.	(16c#X\LL	.	.	.	.
.	.	.	.	.	.	16B\JJ)	.	.	.	.
.	.	8qqg/	.	8qqb/	.	.	.	.	.	.
4F#\	.	2f#/	.	2a/	.	2A\	-a	.	.	.
4E\	.	.	.	.	.	.	.	.	.	.
=66	=66	=66	=66	=66	=66	=66	=66	=66	=66	=66
4D/	.	4dd\	.	4dd\	.	4A\	San-	1ryy	1ryy	1ryy
4d\	.	2ff#\	.	2aa\	.	4A\	-cta	.	.	.
4F#\	.	.	.	.	.	8f#\L	De-	.	.	.
.	.	.	.	.	.	8d\J	.	.	.	.
4A\	.	4ee\	.	4gg\	.	8c#X\L	-i	.	.	.
.	.	.	.	.	.	8e\J	.	.	.	.
=67	=67	=67	=67	=67	=67	=67	=67	=67	=67	=67
!	!	!LO:TX:a:t=P:problem:mixed beam	!	!	!	!	!	!	!	!
4D\	.	8dd\L	.	8ff#\L	.	4.d\	ge-	1ryy	1ryy	1ryy
.	.	8f#/	.	8dd\	.	.	.	.	.	.
4E\	.	8e/	.	8cc#X\	.	.	.	.	.	.
.	.	8g/J	.	8b\J	.	16c#X\LL	-ni-	.	.	.
.	.	.	.	.	.	16B\JJ	.	.	.	.
4F#\	.	4f#/	.	4a/	.	4A\	-trix	.	.	.
4D\	.	4g/	.	4b/	.	4B\	o-	.	.	.
=68	=68	=68	=68	=68	=68	=68	=68	=68	=68	=68
.	.	.	.	.	.	8qqA/	.	.	.	.
4A\	.	4ee\	.	4gg\	.	4G/	-ra	1ryy	1ryy	1ryy
4A\	.	4ee\	.	4gg\	.	8e\L	pro	.	.	.
!	!	!	!	!	!	!LO:SIC:s=8c#	!	!	!	!
.	.	.	.	.	.	8c\J	.	.	.	.
.	.	.	.	.	.	8qqA/	.	.	.	.
4A\	.	4ee\	.	4gg\	.	2G/	no-	.	.	.
4A\	.	4ee\	.	4gg\	.	.	.	.	.	.
=69	=69	=69	=69	=69	=69	=69	=69	=69	=69	=69
4D\	.	4dd\	.	4ff#\	.	4F#/	-bis	1ryy	1ryy	1ryy
4D\	.	4dd\	.	4ff#\	.	4r	.	.	.	.
4D\	.	4a/	.	4ff#\	.	8F#/L	San-	.	.	.
.	.	.	.	.	.	8G/	.	.	.	.
4D\	.	4a/	.	4ff#\	.	8A/	-cta	.	.	.
.	.	.	.	.	.	8B/J	.	.	.	.
=70	=70	=70	=70	=70	=70	=70	=70	=70	=70	=70
4D\	.	4a/	.	4ff#\	.	8cn\L	Vir-	1ryy	1ryy	1ryy
.	.	.	.	.	.	8A\J	.	.	.	.
4D\	.	4a/	.	4ff#\	.	8F#/L	-go.	.	.	.
!	!	!	!	!	!	!LO:LB:g=original	!	!	!	!
.	.	.	.	.	.	8E/J	.	.	.	.
4D\	.	4a/	.	4ff#\	.	4D/	Vir-	.	.	.
4D\	.	4a/	.	4ff#\	.	4cn\	-gi-	.	.	.
!LO:LB:g=original	!	!	!	!	!	!	!	!	!	!
=71	=71	=71	=71	=71	=71	=71	=71	=71	=71	=71
.	.	.	.	.	.	8qqc/	.	.	.	.
4G\	.	4b\	.	4gg\	.	2B\	-nim	1ryy	1ryy	1ryy
4G\	.	4b\	.	4gg\	.	.	.	.	.	.
4G\	.	4b\	.	4dd\	.	8B\L	o-	.	.	.
.	.	.	.	.	.	8cn\	.	.	.	.
4G\	.	4b\	.	4dd\	.	8d\	.	.	.	.
.	.	.	.	.	.	8e\J	.	.	.	.
=72	=72	=72	=72	=72	=72	=72	=72	=72	=72	=72
4G\	.	4b\	.	4dd\	.	8fn\L	-ra	1ryy	1ryy	1ryy
.	.	.	.	.	.	8d\J	.	.	.	.
4G\	.	4b\	.	4dd\	.	8B\L	pro	.	.	.
.	.	.	.	.	.	8A\J	.	.	.	.
4G\	.	4b\	.	4dd\	.	4G/	no-	.	.	.
4G\	.	4b\	.	4dd\	.	4fn\	.	.	.	.
!	!	!LO:LB:g=original	!	!	!	!	!	!	!	!
=73	=73	=73	=73	=73	=73	=73	=73	=73	=73	=73
4C/	.	4cc\	.	4ee\	.	2e\	-bis	1ryy	1ryy	1ryy
4C/	.	4cc\	.	4ee\	.	.	.	.	.	.
4A\	.	4cc#X\	.	4ee\	.	8c#X\L	San-	.	.	.
.	.	.	.	.	.	8d\J	.	.	.	.
4A\	.	4cc#\	.	4ee\	.	8e\L	-cta	.	.	.
.	.	.	.	.	.	8f#X\J	.	.	.	.
!	!	!	!	!LO:LB:g=original	!	!	!	!	!	!
=74	=74	=74	=74	=74	=74	=74	=74	=74	=74	=74
!	!	!LO:SIC:s=4cc#	!	!	!	!	!	!	!	!
4A\	.	4cc\	.	4ee\	.	8g\L	Vir-	1ryy	1ryy	1ryy
.	.	.	.	.	.	8e\J	.	.	.	.
!	!	!LO:SIC:s=4cc#	!	!	!	!	!	!	!	!
4A\	.	4cc\	.	4ee\	.	8c#X\L	-go	.	.	.
.	.	.	.	.	.	8B\J	.	.	.	.
!	!	!LO:SIC:s=4cc#	!	!	!	!	!	!	!	!
4A\	.	4cc\	.	4ee\	.	4A\	Vir-	.	.	.
!	!	!LO:SIC:s=4cc#	!	!	!	!	!	!	!	!
4A\	.	4cc\	.	4ee\	.	4g\	-gi-	.	.	.
=75	=75	=75	=75	=75	=75	=75	=75	=75	=75	=75
4D\	.	4dd\	.	12ff#\L	.	4f#\	-num	1ryy	1ryy	1ryy
.	.	.	.	12gg\	.	.	.	.	.	.
.	.	.	.	12ff#\J	.	.	.	.	.	.
4G\	.	4b\	.	12gg\L	.	4g\	o-	.	.	.
.	.	.	.	12ff#\	.	.	.	.	.	.
.	.	.	.	12gg\J	.	.	.	.	.	.
.	.	.	.	8qqffn/	.	8qqfn/	.	.	.	.
4G\	.	2ccn\	.	2ee\	.	2e\	.	.	.	.
4G\	.	.	.	.	.	.	.	.	.	.
=76	=76	=76	=76	=76	=76	=76	=76	=76	=76	=76
4G\	.	4b\	.	12dd\L	.	4d\	-ra	1ryy	1ryy	1ryy
.	.	.	.	12gg\	.	.	.	.	.	.
.	.	.	.	12ff#\J	.	.	.	.	.	.
4G\	.	4b\	.	12gg\L	.	4g\	o-	.	.	.
.	.	.	.	12ff#\	.	.	.	.	.	.
.	.	.	.	12gg\J	.	.	.	.	.	.
.	.	.	.	8qqdd/	.	8qqd/	.	.	.	.
4D\	.	2a/	.	2cc\	.	2c\	.	.	.	.
4D\	.	.	.	.	.	.	.	.	.	.
=77	=77	=77	=77	=77	=77	=77	=77	=77	=77	=77
4G\	.	4d/	.	8b/L	.	(8B\L	-ra	1ryy	1ryy	1ryy
.	.	.	.	8g/	.	8G\J)	.	.	.	.
4C/	.	4e/	.	8a/	.	8A/L	pro	.	.	.
.	.	.	.	8e/J	.	8E/J	.	.	.	.
.	.	.	.	.	.	8qqG/	.	.	.	.
4D/	.	2f#/	.	2f#/	.	2F#/	no-	.	.	.
4DD/	.	.	.	.	.	.	.	.	.	.
=78	=78	=78	=78	=78	=78	=78	=78	=78	=78	=78
!	!	!	!	!LO:TX:a:t=P:problem:mixed beam	!LO:DY:rj:t=p	!	!	!	!	!
4GG/	.	4g/	.	12g/L	p	4G/	-bis	1ryy	1ryy	1ryy
.	.	.	.	12gg\	.	.	.	.	.	.
.	.	.	.	12ff#\J	.	.	.	.	.	.
4G\	.	4b/	.	12gg\L	.	4g\	o-	.	.	.
.	.	.	.	12ff#\	.	.	.	.	.	.
.	.	.	.	12gg\J	.	.	.	.	.	.
!	!	!	!	!	!	!LO:LB:g=original	!	!	!	!
.	.	.	.	8qqff#/	.	8qqfn/	.	.	.	.
4G\	.	2cc\	.	2ee\	.	2e\	.	.	.	.
4G\	.	.	.	.	.	.	.	.	.	.
=79	=79	=79	=79	=79	=79	=79	=79	=79	=79	=79
4G\	.	4b\	.	12dd\L	.	4d\	-ra	1ryy	1ryy	1ryy
.	.	.	.	12gg\	.	.	.	.	.	.
.	.	.	.	12ff#\J	.	.	.	.	.	.
4G\	.	4b\	.	12gg\L	.	4g\	.	.	.	.
.	.	.	.	12ff#\	.	.	.	.	.	.
.	.	.	.	12gg\J	.	.	.	.	.	.
.	.	8qqb/	.	8qqdd/	.	8qqd/	.	.	.	.
4D\	.	2a/	.	2cc\	.	2c\	pro	.	.	.
4D\	.	.	.	.	.	.	.	.	.	.
=80	=80	=80	=80	=80	=80	=80	=80	=80	=80	=80
4G\	.	4d/	.	8b/L	.	8B\L	no-	1ryy	1ryy	1ryy
.	.	.	.	8g/	.	8G\	.	.	.	.
4C/	.	4e/	.	8a/	.	8A\	.	.	.	.
.	.	.	.	8e/J	.	8E\J	.	.	.	.
.	.	.	.	8qqg/	.	8qqG/	.	.	.	.
4D/	.	2f#/	.	2f#/	.	2F#/	.	.	.	.
!LO:TX:b:t=Da Capo	!	!LO:TX:b:t=Da Capo	!	!LO:TX:b:t=Da Capo	!	!	!	!	!	!
4DD/	.	.	.	.	.	.	.	.	.	.
=81	=81	=81	=81	=81	=81	=81	=81	=81	=81	=81
1ryy	.	1ryy	.	1ryy	.	2G/	-bis	1ryy	1ryy	1ryy
.	.	.	.	.	.	2r	.	.	.	.
=82	=82	=82	=82	=82	=82	=82	=82	=82	=82	=82
1ryy	.	1ryy	.	1ryy	.	00r	.	1ryy	1ryy	1ryy
=83	=83	=83	=83	=83	=83	=83	=83	=83	=83	=83
1ryy	.	1ryy	.	1ryy	.	.	.	1ryy	1ryy	1ryy
=84	=84	=84	=84	=84	=84	=84	=84	=84	=84	=84
1ryy	.	1ryy	.	1ryy	.	.	.	1ryy	1ryy	1ryy
=85	=85	=85	=85	=85	=85	=85	=85	=85	=85	=85
1ryy	.	1ryy	.	1ryy	.	.	.	1ryy	1ryy	1ryy
=86	=86	=86	=86	=86	=86	=86	=86	=86	=86	=86
1ryy	.	1ryy	.	1ryy	.	00r	.	1ryy	1ryy	1ryy
=87	=87	=87	=87	=87	=87	=87	=87	=87	=87	=87
1ryy	.	1ryy	.	1ryy	.	.	.	1ryy	1ryy	1ryy
=88	=88	=88	=88	=88	=88	=88	=88	=88	=88	=88
1ryy	.	1ryy	.	1ryy	.	.	.	1ryy	1ryy	1ryy
=89	=89	=89	=89	=89	=89	=89	=89	=89	=89	=89
1ryy	.	1ryy	.	1ryy	.	.	.	1ryy	1ryy	1ryy
=90	=90	=90	=90	=90	=90	=90	=90	=90	=90	=90
1ryy	.	1ryy	.	1ryy	.	00r	.	1ryy	1ryy	1ryy
=91	=91	=91	=91	=91	=91	=91	=91	=91	=91	=91
1ryy	.	1ryy	.	1ryy	.	.	.	1ryy	1ryy	1ryy
=92	=92	=92	=92	=92	=92	=92	=92	=92	=92	=92
1ryy	.	1ryy	.	1ryy	.	.	.	1ryy	1ryy	1ryy
=93	=93	=93	=93	=93	=93	=93	=93	=93	=93	=93
1ryy	.	1ryy	.	1ryy	.	.	.	1ryy	1ryy	1ryy
=94	=94	=94	=94	=94	=94	=94	=94	=94	=94	=94
1ryy	.	1ryy	.	1ryy	.	00r	.	1ryy	1ryy	1ryy
=95	=95	=95	=95	=95	=95	=95	=95	=95	=95	=95
1ryy	.	1ryy	.	1ryy	.	.	.	1ryy	1ryy	1ryy
=96	=96	=96	=96	=96	=96	=96	=96	=96	=96	=96
1ryy	.	1ryy	.	1ryy	.	.	.	1ryy	1ryy	1ryy
=97	=97	=97	=97	=97	=97	=97	=97	=97	=97	=97
1ryy	.	1ryy	.	1ryy	.	.	.	1ryy	1ryy	1ryy
=98	=98	=98	=98	=98	=98	=98	=98	=98	=98	=98
1ryy	.	1ryy	.	1ryy	.	00r	.	1ryy	1ryy	1ryy
=99	=99	=99	=99	=99	=99	=99	=99	=99	=99	=99
1ryy	.	1ryy	.	1ryy	.	.	.	1ryy	1ryy	1ryy
=100	=100	=100	=100	=100	=100	=100	=100	=100	=100	=100
1ryy	.	1ryy	.	1ryy	.	.	.	1ryy	1ryy	1ryy
=101	=101	=101	=101	=101	=101	=101	=101	=101	=101	=101
1ryy	.	1ryy	.	1ryy	.	.	.	1ryy	1ryy	1ryy
=102	=102	=102	=102	=102	=102	=102	=102	=102	=102	=102
1ryy	.	1ryy	.	1ryy	.	1r	.	1ryy	1ryy	1ryy
==	==	==	==	==	==	==	==	==	==	==
*-	*-	*-	*-	*-	*-	*-	*-	*-	*-	*-
!!!system-decoration: [g1][g2][g3]s7
!!!RDF**dynam: p = "p:"
!!!RDF**dynam: f = "f:"
!!!ENC: Marta Lawrence
!!!END: 2020-10-14
!!!ENC: Kamil Watkowski
!!!END: 2020-05-20
